X:1
T:El Columpio
T:El Columpio
T:En ré mayor
T:Francisco Tárrega (1852 - 1909)
C:Francisco Tárrega
%%score ( 1 2 )
L:1/8
Q:1/4=60
M:2/4
K:D
V:1 treble-8 nm="Classical Guitar" snm="Guit."
V:2 treble-8 
V:1
"^Lento" [df]/[eg]/[fa] [fa][fa] | !>![fa]4 | [gb]/[ac']/[bd']/[c'e']/ [d'f'][d'f'] | !>![d'f']4 | %4
{/e'f'} [c'e']/[bd']/[ac']/[bd']/ [c'e'][c'e'] | !>![c'e']2"_VII" [bd'][gb] | %6
{/d'e'} !>![bd'][ac']{/c'd'} !>![ac'][gb] | !>![fa]4 | [df]/[eg]/[fa] [fa][fa] | !>![fa]4 | %10
 [gb]/[ac']/[bd']/[c'e']/ [d'f'][d'f'] | !>![d'f']4 | %12
{/e'f'} [c'e']/[bd']/[ac']/[bd']/ [c'e'][c'e'] | ac'"^VII" c'/b/d/b/ | [ec']4- | [ec']4 :: %16
 (5:4:5(!>!c/4d/4c/4)A/4A,/4(5:4:5(!>!d/4e/4d/4)B/4A,/4 (5:4:5(!>!e/4f/4e/4)c/4A,/4(5:4:5(!>!f/4g/4f/4)d/4A,/4 | %17
 (5:4:5(!>!g/4a/4g/4)e/4A,/4(5:4:5(!>!a/4b/4a/4)f/4A,/4 (5:4:5(!>!b/4c'/4b/4)g/4A,/4(5:4:5(!>!c'/4d'/4c'/4)a/4A,/4 | %18
{/ab} !-(![fa]2{!-)![df]} [df]2 | z2{/d'e'} !-(!!>![bd']{!-)![gb]}[gb] | %20
{/c'd'} [ac']"_XII" z [gb]"_VII" z |{/ab} [fa]2 [^e^g]2 |{/bc'} !-(![gb]2{!-)![fa]} [fa]2- | %23
 [fa]2 z2 | %24
 (5:4:5(!>!c/4d/4c/4)A/4A,/4(5:4:5(!>!d/4e/4d/4)B/4A,/4 (5:4:5(!>!e/4f/4e/4)c/4A,/4(5:4:5(!>!f/4g/4f/4)d/4A,/4 | %25
 (5:4:5(!>!g/4a/4g/4)e/4A,/4(5:4:5(!>!a/4b/4a/4)f/4A,/4 (5:4:5(!>!b/4c'/4b/4)g/4A,/4(5:4:5(!>!c'/4d'/4c'/4)a/4A,/4 | %26
{/ab} !-(![fa]2 !-)![df]2 |{/d'e'} [bd']2{/bc'} [gb]2 |{/ab} [dfa]2 !-(!f!-)!{d}d | %29
{/cd} [Ec]2 [EB]c | [Fd]2"^II" z2 |"^VII"!-)!{/d'} [dfd']2"_XII""^XII" d2 :| %32
V:2
 D,A, DA, | D,A, DA, | D,A, DA, | D,A, DA, | A,2 z e | ae A2 | A,2 A,2 | D,A, DA, | D,A, DA, | %9
 D,A, DA, | D,A, DA, | D,A, DA, | A,2 z e | ce [Ee]2 | A,"^VII"e ae | A4 :: x4 | x4 | D,A, DA, | %19
 D,A, DA, | z A z A | z A z A | D,A, DA, | D,A, DA, | x4 | x4 | D,A, DA, | GD GD | %28
 D,A, !-(!A!-)!{F}F | A,G A,G | D,/(A,/D/)F/ A/d/f/!-(!a/ | D2 D2 :| %32

